usr/share/icons/biglinux-icons-material/24/actions/final_activity.svg

<svg xmlns="http://www.w3.org/2000/svg" viewBox="0 0 24 24">
  <defs id="defs3051">
    <style type="text/css" id="current-color-scheme">
      .ColorScheme-Text {
        color:#dedede;
      }
      </style>
  </defs>
 <path style="fill:currentColor;fill-opacity:1;stroke:none" 
     d="M 12 4 C 7.5817254 4 4.0000047 7.5817206 4 12 C 4.0000047 16.418279 7.5817254 20 12 20 C 16.418275 20 19.999995 16.418279 20 12 C 19.999995 7.5817206 16.418275 4 12 4 z M 12 5 C 13.660191 5.0004288 15.266188 5.5909096 16.53125 6.6660156 L 16.53125 6.6679688 C 16.54371 6.6873648 16.54928 6.698596 16.5625 6.71875 L 12 11.28125 L 7.4375 6.71875 C 7.44567 6.705644 7.4489602 6.6985249 7.4570312 6.6855469 C 8.7223998 5.6007743 10.333303 5.0030918 12 5 z M 6.71875 7.4375 L 11.28125 12 L 6.71875 16.5625 C 6.6171467 16.440805 6.5512717 16.375451 6.4570312 16.265625 C 5.514313 15.043295 5.0020659 13.543633 5 12 C 5.0008918 10.340481 5.5913443 8.735253 6.6660156 7.4707031 C 6.6871048 7.4567728 6.6971198 7.4519431 6.71875 7.4375 z M 17.28125 7.4375 C 17.29045 7.4413 17.295507 7.4415525 17.304688 7.4453125 C 18.395603 8.7123591 18.996983 10.328027 19 12 C 18.99955 13.666377 18.404652 15.277936 17.322266 16.544922 C 17.307246 16.552622 17.29715 16.55392 17.28125 16.5625 L 12.71875 12 L 17.28125 7.4375 z M 12 12.71875 L 16.5625 17.28125 C 16.5577 17.2914 16.555501 17.296561 16.550781 17.306641 C 15.284483 18.395984 13.67038 18.996594 12 19 C 10.326931 18.998459 8.7097453 18.397731 7.4414062 17.306641 C 7.4396762 17.296321 7.43926 17.29165 7.4375 17.28125 L 12 12.71875 z "
     class="ColorScheme-Text"
     />
</svg>

<svg xmlns="http://www.w3.org/2000/svg" viewBox="0 0 24 24"><path d="M12 4a8 8 0 1 0 0 16 8 8 0 0 0 0-16zm0 1a7 7 0 0 1 4.531 1.666v.002c.013.02.018.03.032.05L12 11.282 7.437 6.72l.02-.033A7 7 0 0 1 12 5zM6.719 7.438 11.28 12 6.72 16.563c-.102-.122-.168-.188-.262-.297A7 7 0 0 1 5 12a7 7 0 0 1 1.666-4.53l.053-.032zm10.562 0 .024.007A7 7 0 0 1 19 12a7 7 0 0 1-1.678 4.545c-.015.008-.025.009-.04.017L12.718 12l4.562-4.563zM12 12.718l4.563 4.563-.012.026A7 7 0 0 1 12 19a7 7 0 0 1-4.559-1.693l-.003-.026L12 12.72z" style="fill:currentColor;fill-opacity:1;stroke:none;color:#dedede"/></svg>
